icons/core/home-fill.svg

<svg width="32" height="32" viewBox="0 0 32 32" fill="none" xmlns="http://www.w3.org/2000/svg">
<path fill-rule="evenodd" clip-rule="evenodd" d="M16.5914 2.19356L16.0001 1.75989L15.4087 2.19355L0.408691 13.1936L1.59142 14.8064L4.00006 13.04V26C4.00006 27.1046 4.89549 28 6.00006 28H12.0001H13.0001V27V19H19.0001V27V28H20.0001H26.0001C27.1046 28 28.0001 27.1046 28.0001 26V13.0401L30.4087 14.8064L31.5914 13.1936L16.5914 2.19356Z" fill="black"/>
</svg>

<svg width="32" height="32" viewBox="0 0 32 32" xmlns="http://www.w3.org/2000/svg">
    <path fill-rule="evenodd" d="M16.591 2.194l-.59-.434-.592.434-15 11 1.182 1.612 2.41-1.766V26a2 2 0 002 2h7v-9h6v9h7a2 2 0 002-2V13.04l2.408 1.766 1.182-1.612-15-11z"/>
</svg>
